pix_plugins/mod/forum/icon.svg

<svg xmlns="http://www.w3.org/2000/svg" viewBox="0 0 16 16" enable-background="new 0 0 16 16"><g><g><circle fill="#666665" cx="8.1" cy="8" r="7.4"/><path fill="#E0E4E3" d="M13.9 5.5c0-.7-.6-1.3-1.3-1.3h-8.5c-.7 0-1.3.6-1.3 1.3v5.3c0 .7.6 1.3 1.3 1.3h8.5c.7 0 1.3-.6 1.3-1.3v-5.3z"/><path fill="#D1D3D3" d="M13.9 5.4c-.1-.6-.6-1.1-1.3-1.1h-8.5c-.7 0-1.3.6-1.3 1.3v.3h11.1v-.5z"/><circle fill="#E84849" cx="3.8" cy="5" r=".3"/><circle fill="#EFC849" cx="4.9" cy="5" r=".3"/><circle fill="#37B34C" cx="5.9" cy="5" r=".3"/></g><path fill="#666665" d="M8.6 6.8v.4c0 .1-.3.2-.5.2h-3.7c-.2 0-.4 0-.4-.1-.1 0-.1-.4-.1-.5 0-.1.3-.2.5-.2h3.7c.2 0 .5.1.5.2zM12.8 8.6c0 .2-.2.4-.4.4h-8.2c-.2 0-.4-.2-.4-.4s.2-.4.4-.4h8.2c.2 0 .4.1.4.4zM12.9 10.1c0 .2-.2.4-.4.4h-8.2c-.2 0-.4-.2-.4-.4s.2-.4.4-.4h8.2c.2 0 .4.2.4.4z"/><path fill="#fff" d="M12.9 5.1c0 .2-.1.4-.2.4h-5c-.1 0-.2-.2-.2-.4s.1-.4.2-.4h4.9c.2 0 .3.2.3.4z"/></g><g><circle fill="#49A0AE" cx="8" cy="7.9" r="7.9"/><path fill="#DFF1ED" d="M14.3 10.9c0 .7-.6 1.3-1.3 1.3h-9.9c-.7 0-1.3-.6-1.3-1.3v-5.8c0-.7.6-1.3 1.3-1.3h9.9c.7 0 1.3.6 1.3 1.3v5.8zM11.3 13.9c-.1.1-.3.1-.4 0l-1.3-1.8c-.1-.1-.1-.3 0-.4h2.9c.1.1.1.3 0 .4l-1.2 1.8z"/><path fill="#B7CAC4" d="M12.4 6c0 .3-.2.5-.5.5h-7.8c-.2 0-.5-.2-.5-.5s.2-.5.5-.5h7.8c.3 0 .5.2.5.5zM12.4 7.9c0 .3-.2.5-.5.5h-7.8c-.3 0-.5-.2-.5-.5s.2-.5.5-.5h7.8c.3 0 .5.2.5.5zM12.4 9.8c0 .3-.2.5-.5.5h-7.8c-.3 0-.5-.2-.5-.5s.2-.5.5-.5h7.8c.3 0 .5.2.5.5z"/></g></svg>

<?xml version="1.0" encoding="utf-8"?>
<!-- Generator: Adobe Illustrator 17.1.0, SVG Export Plug-In . SVG Version: 6.00 Build 0)  -->
<!DOCTYPE svg PUBLIC "-//W3C//DTD SVG 1.1//EN" "http://www.w3.org/Graphics/SVG/1.1/DTD/svg11.dtd">
<svg version="1.1" xmlns="http://www.w3.org/2000/svg" xmlns:xlink="http://www.w3.org/1999/xlink" x="0px" y="0px"
	 viewBox="0 0 16 16" enable-background="new 0 0 16 16" xml:space="preserve">
<g id="Layer_1">
	<g id="Layer_6">
		<g>
			<g>
				<g>
					<g>
						<g>
							<circle fill="#666665" cx="8.1" cy="8" r="7.4"/>
						</g>
					</g>
				</g>
			</g>
			<g>
				<g>
					<g>
						<path fill="#E0E4E3" d="M13.9,5.5c0-0.7-0.6-1.3-1.3-1.3H4.1c-0.7,0-1.3,0.6-1.3,1.3v5.3c0,0.7,0.6,1.3,1.3,1.3h8.5
							c0.7,0,1.3-0.6,1.3-1.3L13.9,5.5L13.9,5.5z"/>
					</g>
					<g>
						<g>
							<g>
								<path fill="#D1D3D3" d="M13.9,5.4c-0.1-0.6-0.6-1.1-1.3-1.1H4.1c-0.7,0-1.3,0.6-1.3,1.3v0.3h11.1V5.4z"/>
							</g>
						</g>
						<g>
							<circle fill="#E84849" cx="3.8" cy="5" r="0.3"/>
						</g>
						<g>
							<circle fill="#EFC849" cx="4.9" cy="5" r="0.3"/>
						</g>
						<g>
							<circle fill="#37B34C" cx="5.9" cy="5" r="0.3"/>
						</g>
					</g>
				</g>
			</g>
		</g>
	</g>
	<g>
		<path fill="#666665" d="M8.6,6.8c0,0.1,0,0.3,0,0.4c0,0.1-0.3,0.2-0.5,0.2H4.4c-0.2,0-0.4,0-0.4-0.1c-0.1,0-0.1-0.4-0.1-0.5
			c0-0.1,0.3-0.2,0.5-0.2h3.7C8.3,6.6,8.6,6.7,8.6,6.8z"/>
	</g>
	<path fill="#666665" d="M12.8,8.6c0,0.2-0.2,0.4-0.4,0.4H4.2C4,9,3.8,8.8,3.8,8.6l0,0c0-0.2,0.2-0.4,0.4-0.4h8.2
		C12.6,8.2,12.8,8.3,12.8,8.6L12.8,8.6z"/>
	<path fill="#666665" d="M12.9,10.1c0,0.2-0.2,0.4-0.4,0.4H4.3c-0.2,0-0.4-0.2-0.4-0.4l0,0c0-0.2,0.2-0.4,0.4-0.4h8.2
		C12.7,9.7,12.9,9.9,12.9,10.1L12.9,10.1z"/>
	<path fill="#FFFFFF" d="M12.9,5.1c0,0.2-0.1,0.4-0.2,0.4H7.7c-0.1,0-0.2-0.2-0.2-0.4l0,0c0-0.2,0.1-0.4,0.2-0.4h4.9
		C12.8,4.7,12.9,4.9,12.9,5.1L12.9,5.1z"/>
</g>
<g id="Layer_2" display="none">
	<polygon fill="#60B03D" points="16,11.9 8,15.8 0,11.9 0,4.1 8,0.1 16,4 	"/>
	<g>
		<g display="inline">
			<g>
				<path fill="#38A70C" d="M6.5,9c0-0.5,0.4-0.9,0.9-0.9h6.7C14.6,8.1,15,8.5,15,9v3.9c0,0.5-0.4,0.9-0.9,0.9H7.4
					c-0.5,0-0.9-0.4-0.9-0.9V9z"/>
			</g>
			<g>
				<path fill="#38A70C" d="M12.2,13.8c-0.1-0.1-0.1-0.2,0-0.2h2l0,1.4c-0.1,0.1-0.2,0.1-0.2,0L12.2,13.8z"/>
			</g>
		</g>
		<rect x="6.5" y="8.1" display="inline" fill="#38A70C" width="8.5" height="6"/>
		<g display="inline">
			<circle fill="#FFFFFF" cx="12.5" cy="11" r="0.6"/>
		</g>
		<g display="inline">
			<circle fill="#FFFFFF" cx="10.7" cy="11" r="0.6"/>
		</g>
		<g display="inline">
			<circle fill="#FFFFFF" cx="9" cy="11" r="0.6"/>
		</g>
	</g>
	<g display="inline">
		<g>
			<path fill="#9ED486" d="M5.1,13c0.1-0.1,0.1-0.3,0-0.4H2l0,2.3c0.1,0.1,0.3,0.1,0.4,0L5.1,13z"/>
		</g>
		<rect x="1.3" y="2.9" fill="#9ED486" width="13.7" height="10.3"/>
		<g>
			<g>
				<path fill="#FFFFFF" d="M4.4,9.4c0-0.2,0.2-0.3,0.5-0.3h7c0.2,0,0.4,0.1,0.4,0.3l0,0c0,0.2-0.2,0.3-0.4,0.3h-7
					C4.6,9.7,4.4,9.6,4.4,9.4L4.4,9.4z"/>
			</g>
			<g>
				<path fill="#FFFFFF" d="M4.4,8c0-0.2,0.2-0.3,0.5-0.3h7c0.2,0,0.4,0.1,0.4,0.3l0,0c0,0.2-0.2,0.3-0.4,0.3h-7
					C4.6,8.3,4.4,8.1,4.4,8L4.4,8z"/>
			</g>
			<g>
				<path fill="#FFFFFF" d="M4.4,6.5c0-0.2,0.2-0.3,0.5-0.3h7c0.2,0,0.4,0.1,0.4,0.3l0,0c0,0.2-0.2,0.3-0.4,0.3h-7
					C4.6,6.8,4.4,6.7,4.4,6.5L4.4,6.5z"/>
			</g>
		</g>
	</g>
	<text transform="matrix(1 0 0 1 1.2525 10.1395)" display="inline" fill="#FFFFFF" font-family="'Georgia'" font-size="9">“</text>
	<text transform="matrix(-1 0 0 1 14.999 17.1532)" display="inline" fill="#FFFFFF" font-family="'Georgia'" font-size="9">“</text>
</g>
<g id="Layer_3">
	<polygon display="none" fill="#38A70C" points="15,12.1 8,16.1 1.1,12.1 1.1,4 8,0 15,4 	"/>
	<rect x="2.4" y="4.6" display="none" fill="#FFFFFF" width="11.4" height="6.6"/>
	<polyline display="none" fill="#FFFFFF" points="6.9,13 6.9,11.2 9.4,11.2 	"/>
	<rect x="1" y="1" display="none" fill="#38A70C" width="10.9" height="10.9"/>
	<polyline display="none" fill="#38A70C" points="2.5,15.9 2.5,11.9 6.6,11.9 	"/>
	<g display="none">
		<rect x="3.6" y="5.8" display="inline" fill="#B0DD9A" width="9" height="0.8"/>
		<rect x="3.6" y="7.5" display="inline" fill="#B0DD9A" width="9" height="0.8"/>
		<rect x="3.6" y="9.2" display="inline" fill="#B0DD9A" width="9" height="0.8"/>
	</g>
	<g>
		<g>
			<g>
				<circle fill="#49A0AE" cx="8" cy="7.9" r="7.9"/>
			</g>
		</g>
		<g>
			<g>
				<g>
					<path fill="#DFF1ED" d="M14.3,10.9c0,0.7-0.6,1.3-1.3,1.3H3.1c-0.7,0-1.3-0.6-1.3-1.3V5.1c0-0.7,0.6-1.3,1.3-1.3H13
						c0.7,0,1.3,0.6,1.3,1.3V10.9z"/>
				</g>
				<g>
					<path fill="#DFF1ED" d="M11.3,13.9c-0.1,0.1-0.3,0.1-0.4,0l-1.3-1.8c-0.1-0.1-0.1-0.3,0-0.4h2.9c0.1,0.1,0.1,0.3,0,0.4
						L11.3,13.9z"/>
				</g>
			</g>
			<g>
				<g>
					<path fill="#B7CAC4" d="M12.4,6c0,0.3-0.2,0.5-0.5,0.5H4.1C3.9,6.5,3.6,6.3,3.6,6l0,0c0-0.3,0.2-0.5,0.5-0.5h7.8
						C12.2,5.5,12.4,5.7,12.4,6L12.4,6z"/>
				</g>
				<g>
					<path fill="#B7CAC4" d="M12.4,7.9c0,0.3-0.2,0.5-0.5,0.5H4.1c-0.3,0-0.5-0.2-0.5-0.5l0,0c0-0.3,0.2-0.5,0.5-0.5h7.8
						C12.2,7.4,12.4,7.6,12.4,7.9L12.4,7.9z"/>
				</g>
				<g>
					<path fill="#B7CAC4" d="M12.4,9.8c0,0.3-0.2,0.5-0.5,0.5H4.1c-0.3,0-0.5-0.2-0.5-0.5l0,0c0-0.3,0.2-0.5,0.5-0.5h7.8
						C12.2,9.3,12.4,9.5,12.4,9.8L12.4,9.8z"/>
				</g>
			</g>
		</g>
	</g>
</g>
</svg>
